figma/plane.svg

<svg xmlns="http://www.w3.org/2000/svg" width="24" height="24" fill="none" viewBox="0 0 24 24">
  <path fill="#000" d="M21 16v-2l-8-5V4c0-1.5-1-2-1.5-2S10 2.5 10 4v5l-8 5v2l8-2.5V19l-2 1.5V22l3.5-1 3.5 1v-1.5L13 19v-5.5l8 2.5Z"/>
</svg>

<svg width="24" height="24" viewBox="0 0 24 24" fill="none" xmlns="http://www.w3.org/2000/svg">
<path d="M21 16V14L13 9V4C13 2.5 12 2 11.5 2C11 2 10 2.5 10 4V9L2 14V16L10 13.5V19L8 20.5V22L11.5 21L15 22V20.5L13 19V13.5L21 16Z" fill="black"/>
</svg>
